assets/icons/office/spreadsheet-filled.svg

<?xml version="1.0" encoding="UTF-8" standalone="no"?>
<svg
   viewBox="0 0 24 24"
   height="24"
   id="svg7384"
   version="1.1"
   width="24"
   sodipodi:docname="spreadsheet-filled.svg"
   inkscape:version="1.2 (1:1.2.1+202207142221+cd75a1ee6d)"
   xmlns:inkscape="http://www.inkscape.org/namespaces/inkscape"
   xmlns:sodipodi="http://sodipodi.sourceforge.net/DTD/sodipodi-0.dtd"
   xmlns="http://www.w3.org/2000/svg"
   xmlns:svg="http://www.w3.org/2000/svg"
   xmlns:rdf="http://www.w3.org/1999/02/22-rdf-syntax-ns#"
   xmlns:cc="http://creativecommons.org/ns#"
   xmlns:dc="http://purl.org/dc/elements/1.1/">
  <sodipodi:namedview
     id="namedview21"
     pagecolor="#ffffff"
     bordercolor="#666666"
     borderopacity="1.0"
     inkscape:pageshadow="2"
     inkscape:pageopacity="0.0"
     inkscape:pagecheckerboard="0"
     showgrid="true"
     width="24px"
     inkscape:zoom="22.627417"
     inkscape:cx="1.9887378"
     inkscape:cy="10.208854"
     inkscape:window-width="1920"
     inkscape:window-height="1043"
     inkscape:window-x="0"
     inkscape:window-y="0"
     inkscape:window-maximized="1"
     inkscape:current-layer="svg7384"
     inkscape:showpageshadow="2"
     inkscape:deskcolor="#d1d1d1">
    <inkscape:grid
       type="xygrid"
       id="grid837"
       dotted="false" />
    <inkscape:grid
       type="xygrid"
       id="grid839"
       dotted="true"
       spacingx="0.5"
       spacingy="0.5"
       empspacing="10" />
  </sodipodi:namedview>
  <metadata
     id="metadata20854">
    <rdf:RDF>
      <cc:Work
         rdf:about="">
        <dc:format>image/svg+xml</dc:format>
        <dc:type
           rdf:resource="http://purl.org/dc/dcmitype/StillImage" />
      </cc:Work>
    </rdf:RDF>
  </metadata>
  <defs
     id="defs7386">
    <linearGradient
       id="linearGradient5606"
       inkscape:swatch="solid">
      <stop
         id="stop5608"
         offset="0"
         style="stop-color:#000000;stop-opacity:1;" />
    </linearGradient>
    <linearGradient
       id="linearGradient4526"
       inkscape:swatch="solid">
      <stop
         id="stop4528"
         offset="0"
         style="stop-color:#ffffff;stop-opacity:1;" />
    </linearGradient>
    <linearGradient
       id="linearGradient3600-4"
       inkscape:swatch="gradient">
      <stop
         id="stop3602-7"
         offset="0"
         style="stop-color:#f4f4f4;stop-opacity:1" />
      <stop
         id="stop3604-6"
         offset="1"
         style="stop-color:#dbdbdb;stop-opacity:1" />
    </linearGradient>
  </defs>
  <path
     id="path324"
     style="color:#000000;fill:#808080;-inkscape-stroke:none;fill-opacity:1"
     d="M 6.4550781 2 C 5.4865002 2.0089807 4.7372573 2.0732705 4.1171875 2.4453125 C 3.7038076 2.6933406 3.3972493 3.1012215 3.2285156 3.6074219 C 3.0597823 4.1136223 3 4.7222254 3 5.5 L 3 18.5 C 3 19.277774 3.0585586 19.891312 3.25 20.408203 C 3.4414415 20.925097 3.8029647 21.335075 4.2773438 21.572266 C 5.2261015 22.046643 6.500008 22 8.5 22 L 15.5 22 C 16.999995 22 18.056053 22.050738 18.882812 21.554688 C 19.296194 21.30666 19.602753 20.89878 19.771484 20.392578 C 19.940218 19.886379 20 19.277774 20 18.5 L 20 8 L 15 8 L 14 8 L 14 2 L 7.5 2 C 7.1250015 2 6.7779375 1.9970064 6.4550781 2 z M 15 2.2929688 L 15 7 L 19.707031 7 L 15 2.2929688 z M 6 8 L 9 8 L 9 9 L 6 9 L 6 8 z M 10 8 L 13 8 L 13 9 L 10 9 L 10 8 z M 6 10 L 9 10 L 9 11 L 6 11 L 6 10 z M 10 10 L 13 10 L 13 11 L 10 11 L 10 10 z M 14 10 L 17 10 L 17 11 L 14 11 L 14 10 z M 6 12 L 9 12 L 9 13 L 6 13 L 6 12 z M 10 12 L 13 12 L 13 13 L 10 13 L 10 12 z M 14 12 L 17 12 L 17 13 L 14 13 L 14 12 z M 6 14 L 9 14 L 9 15 L 6 15 L 6 14 z M 10 14 L 13 14 L 13 15 L 10 15 L 10 14 z M 14 14 L 17 14 L 17 15 L 14 15 L 14 14 z M 6 16 L 9 16 L 9 17 L 6 17 L 6 16 z M 10 16 L 13 16 L 13 17 L 10 17 L 10 16 z M 14 16 L 17 16 L 17 17 L 14 17 L 14 16 z M 6 18 L 9 18 L 9 19 L 6 19 L 6 18 z M 10 18 L 13 18 L 13 19 L 10 19 L 10 18 z M 14 18 L 17 18 L 17 19 L 14 19 L 14 18 z " />
  <g
     id="layer9"
     label="status"
     style="display:inline"
     transform="translate(-613.0002,327)" />
  <g
     id="layer4"
     style="display:inline"
     transform="translate(-372,-39.999996)" />
  <g
     id="g1812"
     style="display:inline"
     transform="translate(-372,-39.999996)" />
  <g
     id="g6217"
     style="display:inline"
     transform="translate(-372,-39.999996)" />
  <g
     id="layer3"
     style="display:inline"
     transform="translate(-372,-39.999996)" />
  <g
     id="g1833"
     style="display:inline"
     transform="translate(-372,-39.999996)" />
  <g
     id="layer1"
     style="display:inline"
     transform="translate(-372,-39.999996)" />
</svg>

<svg height="24" width="24" xmlns="http://www.w3.org/2000/svg"><path style="color:#000;fill:gray;-inkscape-stroke:none;fill-opacity:1" d="M6.455 2c-.968.009-1.718.073-2.338.445-.413.248-.72.656-.888 1.162C3.059 4.114 3 4.722 3 5.5v13c0 .778.059 1.391.25 1.908.191.517.553.927 1.027 1.164.95.475 2.223.428 4.223.428h7c1.5 0 2.556.05 3.383-.445.413-.248.72-.656.888-1.162.17-.507.229-1.115.229-1.893V8h-6V2H7.5c-.375 0-.722-.003-1.045 0zM15 2.293V7h4.707L15 2.293zM6 8h3v1H6V8zm4 0h3v1h-3V8zm-4 2h3v1H6v-1zm4 0h3v1h-3v-1zm4 0h3v1h-3v-1zm-8 2h3v1H6v-1zm4 0h3v1h-3v-1zm4 0h3v1h-3v-1zm-8 2h3v1H6v-1zm4 0h3v1h-3v-1zm4 0h3v1h-3v-1zm-8 2h3v1H6v-1zm4 0h3v1h-3v-1zm4 0h3v1h-3v-1zm-8 2h3v1H6v-1zm4 0h3v1h-3v-1zm4 0h3v1h-3v-1z"/></svg>
